X: 28
T: No_35_Song_Concerning_the_Clouds_and_Fog.krn
N: Derived from No_35_Song_Concerning_the_Clouds_and_Fog.krn
%%abc-version 2.0
%%abcx-abcm2ps-target-version 5.9.1 (29 Sep 2008)
%%abc-creator hum2abc beta
%%abcx-conversion-date 2019/03/15 08:25:35
%%humdrum-veritas 393405939
%%humdrum-veritas-data 120963929
%%linebreak <none>
%%barnumbers 0
L: 1/8
M: 3/4
K: C clef=bass
[K:clef=bass][M:3/4]G,G, G,G, G,G, ]|:  
GG GG GG | 
[M:2/4]F/E/E/E/ DD | 
[M:3/4]GG DD DD | 
[M:2/4]D/C/C/A,/ A, z | 
[M:3/4]DD CC A,A, | 
[M:5/8]A,/G,/G,G,G,G,/ z/ | 
[M:3/4]CC A,A, A,A, | 
[M:2/4]A,B, A,/G,/G, | 
G,G, G, z | 
[M:3/4]B,/G,/G, G,A, G,G, :|]|:  
[M:2/4]A,/A,3/ E/D/C/C/ | 
D/C/C/A,/ G,G, | 
A,/A,3/ E/D/D/C/ | 
D/C/C/A,/G,2 | 
A,3/A,/B,2 | 
B,3/B,/ A,G, | 
[M:3/4]A,A, A,/G,/G, G,G,/ z/ | 
B,/G,/G, G,A, G,G, :|]  



